X: 130
T:The Humors of Bandon.
R:Jig
C:J. O'Neill.
B:Krassen O'Neill's Music of Ireland
Z:Alf Warnock - alf0@rogers.com - www.alfwarnock.info/alfs
M:6/8
L:1/8
K:G
D|DGG GFG|A2G FGA|~B3 GFG|Ade fef|
~d2 e c2 d|BAG FGA|BAG FEF|~G3 G2:|
B|:d2g gfg|a2g fga|g2f d2e|fed c2e|
d2c Bcd|cBA G2B|A2G FGA|GFE FDC|
DGG GFG|A2G FGA|BGG GFG|Ade fef|
ded c2d|BAG FGA|B/c/dB cAF|[1 ~G3 G2B:|[2 G3 G2|
